**kern	**kern	**dynam
*part1	*part1	*part1
*staff2	*staff1	*
*I"Piano	*	*
*clefF4	*clefG2	*
*k[b-e-]	*k[b-e-]	*
=1	=1	=1
*^	*	*
2F	2.BB-	(2dn 2ddn	<
4G	.	4e-X 4ee-X	.
=	=	=	=
2.A-X 2.B-	2.D	2.f 2.ff	[ >
=	=	=	=
2.B-	2E- 2G	2e- 2ee-	]
.	4BB- 4F	4d 4dd	.
*v	*v	*	*
=	=	=
2.FF 2.E-	2.c 2.a 2.cc	.
=	=	=
2GG 2D	2B-) 2b-	.
4r	4r	.
*	*clefF4	*
=	=	=
(2.DD [2.BB-	(2.F#X [2.B-	>
=	=	=
2.EE-) 2.BB-]	2.G) 2.B-]	]
=	=	=
2.FF 2.D	2.Fn 2.B-	pp
=	=	=
*	*^	*
(2.FFF [2.FF	2G-X [2B-	(2.E-	>
.	4F 4A	.	.
=	=	=	=
2BBB-) 2FF]	2F 2B-]	2D)	.
*	*v	*v	*
4r	4r	] ppp
==	==	==
*-	*-	*-
!!!system-decoration: {(s1,s2)}
